resources/svg/minor-minimize.svg

<svg xmlns="http://www.w3.org/2000/svg" viewBox="0 0 20 20" fill="currentColor"><path d="M11 7.5a1.5 1.5 0 0 0 1.5 1.5h3.5a1 1 0 1 0 0-2h-3v-3a1 1 0 1 0-2 0v3.5zm1.5 3.5a1.5 1.5 0 0 0-1.5 1.5v3.5a1 1 0 1 0 2 0v-3h3a1 1 0 1 0 0-2h-3.5zm-5 0a1.5 1.5 0 0 1 1.5 1.5v3.5a1 1 0 1 1-2 0v-3h-3a1 1 0 1 1 0-2h3.5zm0-2a1.5 1.5 0 0 0 1.5-1.5v-3.5a1 1 0 1 0-2 0v3h-3a1 1 0 1 0 0 2h3.5z"/></svg>

<svg xmlns="http://www.w3.org/2000/svg" viewBox="0 0 20 20" fill="currentColor"><path d="M11 7.5A1.5 1.5 0 0 0 12.5 9H16a1 1 0 1 0 0-2h-3V4a1 1 0 1 0-2 0v3.5zm1.5 3.5a1.5 1.5 0 0 0-1.5 1.5V16a1 1 0 1 0 2 0v-3h3a1 1 0 1 0 0-2h-3.5zm-5 0A1.5 1.5 0 0 1 9 12.5V16a1 1 0 1 1-2 0v-3H4a1 1 0 1 1 0-2h3.5zm0-2A1.5 1.5 0 0 0 9 7.5V4a1 1 0 1 0-2 0v3H4a1 1 0 1 0 0 2h3.5z"/></svg>
